X:4
T:Father O'Grady's Visit to Brocca
C:Josie McDermott
S:Brendan McAuley
Z:Anthony Buffery <anthony.buffery@RRC.CO.UK> irtrad-l 2001-6-13
R:reel
M:4/4
K:D
FG|Adde fdec|ABAG EFAe|fded cAAG|EFGE D2de|
fdec ABAG|EFGE ABde|fded CAAG|EFGE D2:|
EG|Adde fage|dfed cAAF|G2GA GEE2|edcA GEE2|
Adde fage|dfed cAAe|f2fa gee2|fage d2:|
